suite-common/icons/assets/icons/qrCode.svg

<svg xmlns="http://www.w3.org/2000/svg" xml:space="preserve" fill="none" viewBox="0 0 24 24">
  <path fill="#000" fill-rule="evenodd" d="M4.772 3.834a1.55 1.55 0 0 0-.901.829l-.091.197v5.28l.108.229a1.7 1.7 0 0 0 .743.743l.229.108h5.28l.229-.108a1.7 1.7 0 0 0 .743-.743l.108-.229V4.86l-.108-.229a1.7 1.7 0 0 0-.743-.743l-.229-.108-2.58-.009c-2.401-.009-2.594-.005-2.788.063m9 0a1.55 1.55 0 0 0-.901.829l-.091.197v5.28l.108.229a1.7 1.7 0 0 0 .743.743l.229.108h5.28l.229-.108a1.7 1.7 0 0 0 .743-.743l.108-.229V4.86l-.108-.229a1.7 1.7 0 0 0-.743-.743l-.229-.108-2.58-.009c-2.401-.009-2.594-.005-2.788.063M9.76 7.5v2.26H5.24V5.24h4.52zm9 0v2.26h-4.52V5.24h4.52zM4.772 12.834a1.55 1.55 0 0 0-.901.829l-.091.197v5.28l.108.229a1.7 1.7 0 0 0 .743.743l.229.108h5.28l.229-.108a1.7 1.7 0 0 0 .743-.743l.108-.229v-5.28l-.108-.229a1.7 1.7 0 0 0-.743-.743l-.229-.108-2.58-.009c-2.401-.009-2.594-.005-2.788.063m8.408-.007a.7.7 0 0 0-.344.341c-.071.139-.076.259-.076 1.832s.005 1.693.076 1.832a.72.72 0 0 0 .664.408.72.72 0 0 0 .664-.408c.071-.139.076-.259.076-1.832s-.005-1.693-.076-1.832a.68.68 0 0 0-.352-.343c-.162-.082-.475-.081-.632.002m3 0a.7.7 0 0 0-.344.341c-.072.142-.076.279-.076 2.87v2.722h-1.222c-1.289 0-1.337.006-1.552.195-.21.184-.289.604-.161.857a.68.68 0 0 0 .343.352c.139.071.259.076 1.832.076s1.693-.005 1.832-.076a.68.68 0 0 0 .343-.352c.057-.113.065-.36.065-2.087v-1.96l1.23-.012c1.342-.014 1.346-.015 1.577-.259A.67.67 0 0 0 20.24 15a.67.67 0 0 0-.193-.494c-.231-.244-.235-.245-1.577-.259l-1.23-.012v-.459c0-.596-.08-.775-.428-.951-.162-.082-.475-.081-.632.002M9.76 16.5v2.26H5.24v-4.52h4.52zm9.66.76a2 2 0 0 1-.149.037c-.147.032-.39.251-.457.411-.04.096-.054.368-.054 1.053 0 .966.012 1.045.195 1.253.255.291.835.291 1.09 0 .183-.208.195-.287.195-1.249 0-.553-.017-.965-.043-1.032a.9.9 0 0 0-.357-.391c-.108-.055-.355-.104-.42-.082"/>
</svg>

<svg xmlns="http://www.w3.org/2000/svg" xml:space="preserve" fill="none" viewBox="0 0 24 24"><path d="M4.772 3.834 C 4.373 3.973,4.054 4.267,3.871 4.663 L 3.780 4.860 3.780 7.500 L 3.780 10.140 3.888 10.369 C 4.025 10.663,4.337 10.975,4.631 11.112 L 4.860 11.220 7.500 11.220 L 10.140 11.220 10.369 11.112 C 10.663 10.975,10.975 10.663,11.112 10.369 L 11.220 10.140 11.220 7.500 L 11.220 4.860 11.112 4.631 C 10.975 4.337,10.663 4.025,10.369 3.888 L 10.140 3.780 7.560 3.771 C 5.159 3.762,4.966 3.766,4.772 3.834 M13.772 3.834 C 13.373 3.973,13.054 4.267,12.871 4.663 L 12.780 4.860 12.780 7.500 L 12.780 10.140 12.888 10.369 C 13.025 10.663,13.337 10.975,13.631 11.112 L 13.860 11.220 16.500 11.220 L 19.140 11.220 19.369 11.112 C 19.663 10.975,19.975 10.663,20.112 10.369 L 20.220 10.140 20.220 7.500 L 20.220 4.860 20.112 4.631 C 19.975 4.337,19.663 4.025,19.369 3.888 L 19.140 3.780 16.560 3.771 C 14.159 3.762,13.966 3.766,13.772 3.834 M9.760 7.500 L 9.760 9.760 7.500 9.760 L 5.240 9.760 5.240 7.500 L 5.240 5.240 7.500 5.240 L 9.760 5.240 9.760 7.500 M18.760 7.500 L 18.760 9.760 16.500 9.760 L 14.240 9.760 14.240 7.500 L 14.240 5.240 16.500 5.240 L 18.760 5.240 18.760 7.500 M4.772 12.834 C 4.373 12.973,4.054 13.267,3.871 13.663 L 3.780 13.860 3.780 16.500 L 3.780 19.140 3.888 19.369 C 4.025 19.663,4.337 19.975,4.631 20.112 L 4.860 20.220 7.500 20.220 L 10.140 20.220 10.369 20.112 C 10.663 19.975,10.975 19.663,11.112 19.369 L 11.220 19.140 11.220 16.500 L 11.220 13.860 11.112 13.631 C 10.975 13.337,10.663 13.025,10.369 12.888 L 10.140 12.780 7.560 12.771 C 5.159 12.762,4.966 12.766,4.772 12.834 M13.180 12.827 C 13.004 12.920,12.921 13.002,12.836 13.168 C 12.765 13.307,12.760 13.427,12.760 15.000 C 12.760 16.573,12.765 16.693,12.836 16.832 C 12.969 17.094,13.208 17.240,13.500 17.240 C 13.792 17.240,14.031 17.094,14.164 16.832 C 14.235 16.693,14.240 16.573,14.240 15.000 C 14.240 13.427,14.235 13.307,14.164 13.168 C 14.078 12.999,13.994 12.917,13.812 12.825 C 13.650 12.743,13.337 12.744,13.180 12.827 M16.180 12.827 C 16.004 12.920,15.921 13.002,15.836 13.168 C 15.764 13.310,15.760 13.447,15.760 16.038 L 15.760 18.760 14.538 18.760 C 13.249 18.760,13.201 18.766,12.986 18.955 C 12.776 19.139,12.697 19.559,12.825 19.812 C 12.917 19.994,12.999 20.078,13.168 20.164 C 13.307 20.235,13.427 20.240,15.000 20.240 C 16.573 20.240,16.693 20.235,16.832 20.164 C 17.001 20.078,17.083 19.994,17.175 19.812 C 17.232 19.699,17.240 19.452,17.240 17.725 L 17.240 15.765 18.470 15.753 C 19.812 15.739,19.816 15.738,20.047 15.494 C 20.181 15.353,20.240 15.201,20.240 15.000 C 20.240 14.799,20.181 14.647,20.047 14.506 C 19.816 14.262,19.812 14.261,18.470 14.247 L 17.240 14.235 17.240 13.776 C 17.240 13.180,17.160 13.001,16.812 12.825 C 16.650 12.743,16.337 12.744,16.180 12.827 M9.760 16.500 L 9.760 18.760 7.500 18.760 L 5.240 18.760 5.240 16.500 L 5.240 14.240 7.500 14.240 L 9.760 14.240 9.760 16.500 M19.420 17.260 C 19.398 17.267,19.331 17.284,19.271 17.297 C 19.124 17.329,18.881 17.548,18.814 17.708 C 18.774 17.804,18.760 18.076,18.760 18.761 C 18.760 19.727,18.772 19.806,18.955 20.014 C 19.210 20.305,19.790 20.305,20.045 20.014 C 20.228 19.806,20.240 19.727,20.240 18.765 C 20.240 18.212,20.223 17.800,20.197 17.733 C 20.146 17.597,19.977 17.412,19.840 17.342 C 19.732 17.287,19.485 17.238,19.420 17.260 " stroke="none" fill-rule="evenodd" fill="black"></path></svg>
